icons/linear-ele-office-data-line.svg

<svg xmlns="http://www.w3.org/2000/svg" width="32px" height="32px" viewBox="0 0 32 32" version="1.1">
    <title>linear-ele-office-data-line</title>
    <g id="linear-ele-office-data-line" stroke-width="1" fill-rule="evenodd">
        <path d="M30,3 C30.5522847,3 31,3.44771525 31,4 C31,4.55228475 30.5522847,5 30,5 L28,5 L28,22 C28,22.5522847 27.5522847,23 27,23 L20.748,23 L24.277,28.9999799 L21.957,28.9999799 L18.428,23 L13.571,23 L10.042,28.9999799 L7.723,28.9999799 L11.251,23 L5,23 C4.44771525,23 4,22.5522847 4,22 L4,5 L2,5 C1.44771525,5 1,4.55228475 1,4 C1,3.44771525 1.44771525,3 2,3 L30,3 Z M26,5 L6,5 L6,21 L26,21 L26,5 Z M22.2071068,9.79289322 C22.5976311,10.1834175 22.5976311,10.8165825 22.2071068,11.2071068 L18.2071068,15.2071068 C17.8165825,15.5976311 17.1834175,15.5976311 16.7928932,15.2071068 L14.5,12.915 L11.2071068,16.2071068 C10.8466228,16.5675907 10.2793918,16.5953203 9.88710056,16.2902954 L9.79289322,16.2071068 C9.40236893,15.8165825 9.40236893,15.1834175 9.79289322,14.7928932 L13.7928932,10.7928932 C14.1834175,10.4023689 14.8165825,10.4023689 15.2071068,10.7928932 L17.5,13.085 L20.7928932,9.79289322 C21.1834175,9.40236893 21.8165825,9.40236893 22.2071068,9.79289322 Z" id="&#24418;&#29366;" fill-rule="nonzero" />
    </g>
</svg>

<svg xmlns="http://www.w3.org/2000/svg" viewBox="0 0 32 32"><path fill="currentColor" d="M30 3a1 1 0 0 1 0 2h-2v17a1 1 0 0 1-1 1h-6.252l3.529 6h-2.32l-3.529-6h-4.857l-3.529 6H7.723l3.528-6H5a1 1 0 0 1-1-1V5H2a1 1 0 1 1 0-2zm-4 2H6v16h20zm-3.793 4.793a1 1 0 0 1 0 1.414l-4 4a1 1 0 0 1-1.414 0L14.5 12.915l-3.293 3.292a1 1 0 0 1-1.32.083l-.094-.083a1 1 0 0 1 0-1.414l4-4a1 1 0 0 1 1.414 0l2.293 2.292 3.293-3.292a1 1 0 0 1 1.414 0"/></svg>
